SVG_Azure_Grouped/Security/Azure Firewall Virtual Hub.svg

<?xml version="1.0" encoding="UTF-8" standalone="no"?>
<!-- Generated by Microsoft Visio, SVG Export Azure Firewall Virtual Hub.svg Page-1 -->

<svg
   xmlns:dc="http://purl.org/dc/elements/1.1/"
   xmlns:cc="http://creativecommons.org/ns#"
   xmlns:rdf="http://www.w3.org/1999/02/22-rdf-syntax-ns#"
   xmlns:svg="http://www.w3.org/2000/svg"
   xmlns="http://www.w3.org/2000/svg"
   xmlns:sodipodi="http://sodipodi.sourceforge.net/DTD/sodipodi-0.dtd"
   xmlns:inkscape="http://www.inkscape.org/namespaces/inkscape"
   width="0.66899675in"
   height="0.80076641in"
   viewBox="0 0 48.167873 57.655006"
   xml:space="preserve"
   class="st7"
   version="1.1"
   id="svg64"
   sodipodi:docname="Azure Firewall Virtual Hub.svg"
   style="font-size:12px;overflow:visible;color-interpolation-filters:sRGB;fill:none;fill-rule:evenodd;stroke-linecap:square;stroke-miterlimit:3"
   inkscape:version="0.92.5 (2060ec1f9f, 2020-04-08)"><metadata
   id="metadata70"><rdf:RDF><cc:Work
       rdf:about=""><dc:format>image/svg+xml</dc:format><dc:type
         rdf:resource="http://purl.org/dc/dcmitype/StillImage" /></cc:Work></rdf:RDF></metadata><defs
   id="defs68" /><sodipodi:namedview
   pagecolor="#ffffff"
   bordercolor="#666666"
   borderopacity="1"
   objecttolerance="10"
   gridtolerance="10"
   guidetolerance="10"
   inkscape:pageopacity="0"
   inkscape:pageshadow="2"
   inkscape:window-width="640"
   inkscape:window-height="480"
   id="namedview66"
   showgrid="false"
   inkscape:zoom="1.7020816"
   inkscape:cx="32.109314"
   inkscape:cy="23.969675"
   inkscape:window-x="0"
   inkscape:window-y="0"
   inkscape:window-maximized="0"
   inkscape:current-layer="svg64" />
	<style
   type="text/css"
   id="style2">
	<![CDATA[
		.st1 {fill:#666666;stroke:none;stroke-linecap:butt;stroke-width:12.3189}
		.st2 {fill:#a0a1a2;stroke:none;stroke-linecap:butt;stroke-width:12.3189}
		.st3 {fill:#e62323;stroke:none;stroke-linecap:butt;stroke-width:12.3189}
		.st4 {fill:#ff7381;stroke:none;stroke-linecap:butt;stroke-width:12.3189}
		.st5 {fill:#e62323;stroke:none;stroke-linecap:butt;stroke-width:13.2489}
		.st6 {fill:#821010;stroke:none;stroke-linecap:butt;stroke-width:12.3189}
		.st7 {fill:none;fill-rule:evenodd;font-size:12px;overflow:visible;stroke-linecap:square;stroke-miterlimit:3}
	]]>
	</style>

	<g
   id="g62"
   transform="translate(-12.321961,-12.317259)">
		<title
   id="title4">Page-1</title>
		<g
   id="group16935-1"
   transform="translate(13.7159,-34.0157)">
			<title
   id="title6">Azure Firewall Virtual Hub.16935</title>
			<g
   id="group16936-2">
				<title
   id="title8">layer1</title>
				<g
   id="shape16937-3"
   transform="translate(5.67672,-9.24736)">
					<title
   id="title10">path4</title>
					<path
   d="m 34.05,69.18 a 4.21172,4.19044 0 0 1 -1.73,-1.69 l -7.88,7.9 h 3.41 z M 18.3,64.83 c -0.42,0.12 -0.85,0.18 -1.29,0.19 A 5.36935,5.34222 0 0 1 15.79,64.83 V 75.39 H 18.3 Z M 1.7,67.49 A 4.56582,4.54275 0 0 1 0,69.18 l 6.24,6.21 h 3.44 l -7.97,-7.9 z m 14.15,36.5 c 0.38,-0.11 0.77,-0.17 1.16,-0.19 0.41,0.01 0.82,0.08 1.22,0.19 V 93.43 H 15.85 Z M 0,99.77 c 0.71,0.4 1.3,0.99 1.7,1.69 L 9.78,93.43 H 6.37 Z m 34.02,0 -6.43,-6.4 h -3.34 l 8.07,8.03 c 0.42,-0.68 1.01,-1.24 1.7,-1.63 z"
   class="st1"
   id="path12"
   inkscape:connector-curvature="0"
   style="fill:#666666;stroke:none;stroke-width:12.31890011;stroke-linecap:butt" />
				</g>
				<g
   id="shape16938-5">
					<title
   id="title15">path6</title>
					<path
   d="m 23.97,55.58 a 4.66285,4.63929 -180 0 0 3.51,-4.51 4.72754,4.70366 -180 1 0 -5.95,4.51 c 0.38,0.11 0.77,0.17 1.16,0.19 0.43,0 0.86,-0.07 1.28,-0.19 z M 7.38,58.24 C 7.8,57.55 8.03,56.77 8.06,55.97 a 4.72754,4.70366 -180 1 0 -4.67,4.6 4.51304,4.49024 -180 0 0 3.99,-2.33 z m 14.15,36.5 a 4.72754,4.70366 -180 1 0 2.44,0 5.10718,5.08137 -180 0 0 -1.28,-0.19 c -0.39,0.02 -0.78,0.09 -1.16,0.19 z m 18.2,-34.81 c 0.7,0.43 1.5,0.65 2.31,0.64 a 4.72754,4.70366 -180 1 0 -4.72,-4.6 c 0,0.83 0.23,1.65 0.67,2.36 0.42,0.69 1.02,1.25 1.74,1.6 z M 5.68,90.52 A 4.53517,4.51226 -180 0 0 3.39,89.85 4.72754,4.70366 -180 1 0 8.12,94.55 4.53347,4.51056 -180 0 0 7.45,92.21 4.56582,4.54275 -180 0 0 5.68,90.52 Z m 36.3,-0.67 a 4.51134,4.48855 -180 0 0 -2.35,0.67 4.82458,4.8002 -180 0 0 -1.7,1.69 4.53347,4.51056 -180 0 0 -0.68,2.34 4.72754,4.70366 -180 1 0 4.73,-4.7 z"
   class="st2"
   id="path17"
   inkscape:connector-curvature="0"
   style="fill:#a0a1a2;stroke:none;stroke-width:12.31890011;stroke-linecap:butt" />
				</g>
				<g
   id="shape16939-7"
   transform="translate(7.27733,-31.8741)">
					<title
   id="title20">path10</title>
					<path
   d="M 9.46,99.81 H 0.04 L 0,103.96 9.61,103.99 9.46,99.8 Z"
   class="st3"
   id="path22"
   inkscape:connector-curvature="0"
   style="fill:#e62323;stroke:none;stroke-width:12.31890011;stroke-linecap:butt" />
				</g>
				<g
   id="shape16940-9"
   transform="translate(18.0262,-31.7092)">
					<title
   id="title25">path12</title>
					<path
   d="M 9.55,99.64 H 0.13 l -0.13,4.13 9.68,0.22 z"
   class="st4"
   id="path27"
   inkscape:connector-curvature="0"
   style="fill:#ff7381;stroke:none;stroke-width:12.31890011;stroke-linecap:butt" />
				</g>
				<g
   id="shape16941-11"
   transform="translate(7.31442,-26.9085)">
					<title
   id="title30">path14</title>
					<path
   d="m 31.1,94.84 h -9.43 l -0.02,4.41 9.99,-0.07 -0.41,-4.34 z M 3.93,100.09 H 0 v 3.9 h 3.92 v -3.9 z"
   class="st3"
   id="path32"
   inkscape:connector-curvature="0"
   style="fill:#e62323;stroke:none;stroke-width:12.31890011;stroke-linecap:butt" />
				</g>
				<g
   id="shape16942-13"
   transform="translate(12.6531,-26.9085)">
					<title
   id="title35">path16</title>
					<path
   d="m 25.76,100.09 h -3.93 v 3.9 h 3.93 z m -16.34,0 H 0 v 3.9 h 9.42 z"
   class="st4"
   id="path37"
   inkscape:connector-curvature="0"
   style="fill:#ff7381;stroke:none;stroke-width:12.31890011;stroke-linecap:butt" />
				</g>
				<g
   id="shape16943-15"
   transform="translate(7.14787,-21.4836)">
					<title
   id="title40">path18</title>
					<path
   d="m 25.77,94.66 h -9.43 v 3.91 l 10.43,0.08 -0.43,-4 z M 9.58,99.67 0.14,99.68 0,103.99 9.64,103.96 9.88,99.67 Z"
   class="st3"
   id="path42"
   inkscape:connector-curvature="0"
   style="fill:#e62323;stroke:none;stroke-width:12.31890011;stroke-linecap:butt" />
				</g>
				<g
   id="shape16944-17"
   transform="translate(17.9647,-21.4196)">
					<title
   id="title45">path20</title>
					<path
   d="M 9.61,99.78 0.09,99.63 0,103.95 l 9.77,0.04 z"
   class="st4"
   id="path47"
   inkscape:connector-curvature="0"
   style="fill:#ff7381;stroke:none;stroke-width:12.31890011;stroke-linecap:butt" />
				</g>
				<g
   id="shape16945-19"
   transform="translate(28.7209,-21.4832)">
					<title
   id="title50">path22</title>
					<rect
   x="0"
   y="99.680901"
   width="9.87008"
   height="4.30935"
   class="st5"
   id="rect52"
   style="fill:#e62323;stroke:none;stroke-width:13.24890041;stroke-linecap:butt" />
				</g>
				<g
   id="shape16946-21"
   transform="translate(5.25793,-19.8048)">
					<title
   id="title55">path8-5</title>
					<path
   d="m 33.51,103.99 a 1.32106,1.31438 -180 0 0 1.35,-1.28 V 87.23 A 1.32106,1.31438 -180 0 0 33.51,85.94 H 1.35 A 1.31935,1.31269 -180 0 0 0,87.23 v 15.48 a 1.31935,1.31269 -180 0 0 1.35,1.28 z m -0.36,-7.11 h -3.92 v -3.9 h 3.92 v 3.91 z m -9.29,-9.15 h 9.42 v 4.04 h -9.42 z m 3.92,5.25 v 3.9 h -9.55 v -3.9 z M 12.9,87.73 h 9.42 v 4.04 H 12.9 Z m 3.92,5.25 v 3.9 H 7.4 v -3.9 z M 2.06,87.73 h 9.42 v 4.04 H 2.06 Z m 0,5.25 h 3.89 v 3.9 H 2.06 Z m 9.42,9.18 H 2.06 v -3.99 h 9.42 z m 10.84,0 H 12.9 v -3.99 h 9.42 z m 1.41,0 v -3.99 h 9.42 v 3.93 z"
   class="st6"
   id="path57"
   inkscape:connector-curvature="0"
   style="fill:#821010;stroke:none;stroke-width:12.31890011;stroke-linecap:butt" />
				</g>
			</g>
		</g>
	</g>
</svg>

<?xml version="1.0" encoding="UTF-8" standalone="no"?>
<!DOCTYPE svg PUBLIC "-//W3C//DTD SVG 1.1//EN" "http://www.w3.org/Graphics/SVG/1.1/DTD/svg11.dtd">
<!-- Generated by Microsoft Visio, SVG Export Azure Firewall Virtual Hub.svg Page-1 -->
<svg xmlns="http://www.w3.org/2000/svg" xmlns:xlink="http://www.w3.org/1999/xlink" xmlns:ev="http://www.w3.org/2001/xml-events"
		width="1.01122in" height="1.44431in" viewBox="0 0 72.808 103.99" xml:space="preserve" color-interpolation-filters="sRGB"
		class="st7">
	<style type="text/css">
	<![CDATA[
		.st1 {fill:#666666;stroke:none;stroke-linecap:butt;stroke-width:12.3189}
		.st2 {fill:#a0a1a2;stroke:none;stroke-linecap:butt;stroke-width:12.3189}
		.st3 {fill:#e62323;stroke:none;stroke-linecap:butt;stroke-width:12.3189}
		.st4 {fill:#ff7381;stroke:none;stroke-linecap:butt;stroke-width:12.3189}
		.st5 {fill:#e62323;stroke:none;stroke-linecap:butt;stroke-width:13.2489}
		.st6 {fill:#821010;stroke:none;stroke-linecap:butt;stroke-width:12.3189}
		.st7 {fill:none;fill-rule:evenodd;font-size:12px;overflow:visible;stroke-linecap:square;stroke-miterlimit:3}
	]]>
	</style>

	<g>
		<title>Page-1</title>
		<g id="group16542-1" transform="translate(13.7159,-34.0157)">
			<title>Azure Firewall Virtual Hub.16542</title>
			<g id="group16543-2">
				<title>layer1</title>
				<g id="shape16544-3" transform="translate(5.67672,-9.24736)">
					<title>path4</title>
					<path d="M34.05 69.18 A4.21172 4.19044 0 0 1 32.32 67.49 L24.44 75.39 L27.85 75.39 L34.05 69.18 L34.05 69.18
								 ZM18.3 64.83 C17.88 64.95 17.45 65.01 17.01 65.02 A5.36935 5.34222 0 0 1 15.79 64.83 L15.79 75.39
								 L18.3 75.39 L18.3 64.83 ZM1.7 67.49 A4.56582 4.54275 0 0 1 0 69.18 L6.24 75.39 L9.68 75.39 L1.71
								 67.49 L1.7 67.49 ZM15.85 103.99 C16.23 103.88 16.62 103.82 17.01 103.8 C17.42 103.81 17.83 103.88
								 18.23 103.99 L18.23 93.43 L15.85 93.43 L15.85 103.99 ZM0 99.77 C0.71 100.17 1.3 100.76 1.7 101.46
								 L9.78 93.43 L6.37 93.43 L0 99.77 ZM34.02 99.77 L27.59 93.37 L24.25 93.37 L32.32 101.4 C32.74 100.72
								 33.33 100.16 34.02 99.77 Z" class="st1"/>
				</g>
				<g id="shape16545-5">
					<title>path6</title>
					<path d="M23.97 55.58 A4.66285 4.63929 -180 0 0 27.48 51.07 A4.72754 4.70366 -180 1 0 21.53 55.58 C21.91 55.69
								 22.3 55.75 22.69 55.77 C23.12 55.77 23.55 55.7 23.97 55.58 L23.97 55.58 ZM7.38 58.24 C7.8 57.55
								 8.03 56.77 8.06 55.97 A4.72754 4.70366 -180 1 0 3.39 60.57 A4.51304 4.49024 -180 0 0 7.38 58.24
								 L7.38 58.24 ZM21.53 94.74 A4.72754 4.70366 -180 1 0 23.97 94.74 A5.10718 5.08137 -180 0 0 22.69
								 94.55 C22.3 94.57 21.91 94.64 21.53 94.74 L21.53 94.74 ZM39.73 59.93 C40.43 60.36 41.23 60.58 42.04
								 60.57 A4.72754 4.70366 -180 1 0 37.32 55.97 C37.32 56.8 37.55 57.62 37.99 58.33 C38.41 59.02 39.01
								 59.58 39.73 59.93 L39.73 59.93 ZM5.68 90.52 A4.53517 4.51226 -180 0 0 3.39 89.85 A4.72754 4.70366
								 -180 1 0 8.12 94.55 A4.53347 4.51056 -180 0 0 7.45 92.21 A4.56582 4.54275 -180 0 0 5.68 90.52 L5.68
								 90.52 ZM41.98 89.85 A4.51134 4.48855 -180 0 0 39.63 90.52 A4.82458 4.8002 -180 0 0 37.93 92.21 A4.53347
								 4.51056 -180 0 0 37.25 94.55 A4.72754 4.70366 -180 1 0 41.98 89.85 L41.98 89.85 Z" class="st2"/>
				</g>
				<g id="shape16546-7" transform="translate(7.27733,-31.8741)">
					<title>path10</title>
					<path d="M9.46 99.81 L0.04 99.81 L0 103.96 L9.61 103.99 L9.46 99.8 L9.46 99.81 Z" class="st3"/>
				</g>
				<g id="shape16547-9" transform="translate(18.0262,-31.7092)">
					<title>path12</title>
					<path d="M9.55 99.64 L0.13 99.64 L0 103.77 L9.68 103.99 L9.55 99.64 L9.55 99.64 Z" class="st4"/>
				</g>
				<g id="shape16548-11" transform="translate(7.31442,-26.9085)">
					<title>path14</title>
					<path d="M31.1 94.84 L21.67 94.84 L21.65 99.25 L31.64 99.18 L31.23 94.84 L31.1 94.84 ZM3.93 100.09 L0 100.09
								 L0 103.99 L3.92 103.99 L3.92 100.09 L3.93 100.09 Z" class="st3"/>
				</g>
				<g id="shape16549-13" transform="translate(12.6531,-26.9085)">
					<title>path16</title>
					<path d="M25.76 100.09 L21.83 100.09 L21.83 103.99 L25.76 103.99 L25.76 100.09 L25.76 100.09 ZM9.42 100.09 L0
								 100.09 L0 103.99 L9.42 103.99 L9.42 100.09 L9.42 100.09 Z" class="st4"/>
				</g>
				<g id="shape16550-15" transform="translate(7.14787,-21.4836)">
					<title>path18</title>
					<path d="M25.77 94.66 L16.34 94.66 L16.34 98.57 L26.77 98.65 L26.34 94.65 L25.77 94.66 ZM9.58 99.67 L0.14 99.68
								 L0 103.99 L9.64 103.96 L9.88 99.67 L9.58 99.67 Z" class="st3"/>
				</g>
				<g id="shape16551-17" transform="translate(17.9647,-21.4196)">
					<title>path20</title>
					<path d="M9.61 99.78 L0.09 99.63 L0 103.95 L9.77 103.99 L9.61 99.78 Z" class="st4"/>
				</g>
				<g id="shape16552-19" transform="translate(28.7209,-21.4832)">
					<title>path22</title>
					<rect x="0" y="99.6809" width="9.87008" height="4.30935" class="st5"/>
				</g>
				<g id="shape16553-21" transform="translate(5.25793,-19.8048)">
					<title>path8-5</title>
					<path d="M33.51 103.99 A1.32106 1.31438 -180 0 0 34.86 102.71 L34.86 87.23 A1.32106 1.31438 -180 0 0 33.51 85.94
								 L1.35 85.94 A1.31935 1.31269 -180 0 0 0 87.23 L0 102.71 A1.31935 1.31269 -180 0 0 1.35 103.99 L33.51
								 103.99 L33.51 103.99 ZM33.15 96.88 L29.23 96.88 L29.23 92.98 L33.15 92.98 L33.15 96.89 L33.15 96.88
								 ZM23.86 87.73 L33.28 87.73 L33.28 91.77 L23.86 91.77 L23.86 87.73 L23.86 87.73 ZM27.78 92.98 L27.78
								 96.88 L18.23 96.88 L18.23 92.98 L27.78 92.98 L27.78 92.98 ZM12.9 87.73 L22.32 87.73 L22.32 91.77
								 L12.9 91.77 L12.9 87.73 ZM16.82 92.98 L16.82 96.88 L7.4 96.88 L7.4 92.98 L16.82 92.98 L16.82 92.98
								 ZM2.06 87.73 L11.48 87.73 L11.48 91.77 L2.06 91.77 L2.06 87.73 ZM2.06 92.98 L5.95 92.98 L5.95 96.88
								 L2.06 96.88 L2.06 92.98 L2.06 92.98 ZM11.48 102.16 L2.06 102.16 L2.06 98.17 L11.48 98.17 L11.48
								 102.16 ZM22.32 102.16 L12.9 102.16 L12.9 98.17 L22.32 98.17 L22.32 102.16 ZM23.73 102.16 L23.73
								 98.17 L33.15 98.17 L33.15 102.1 L23.73 102.16 Z" class="st6"/>
				</g>
			</g>
		</g>
	</g>
</svg>
